X:715
T:Mrs. MacLeod of Gesto
R:Strathspey
B:The Athole Collection
M:C
L:1/8
K:F
c/B/|A<F c>F Ac c2|d>cB>A B<G G>B|A>Fc>F Ac c2|d>g cd/e/ ~f2 f:|
g|a>fe>f c>fe>f|d<g g>f e>gc>b|a>fe>f c>fe>f|d>g cd/e/ (f2 f)>g|
b/a/g/f/ e>f dB|A>Fc>A B/c/d/e/ f>g|
a>f e/f/g/e/ f2 f||
